libs/ui/packages/crypto-icons/src/svg/DSM.svg

<svg width="170" height="170" viewBox="0 0 170 170" fill="none" xmlns="http://www.w3.org/2000/svg">
<path fill-rule="evenodd" clip-rule="evenodd" d="M72.2018 131.789C78.244 131.789 85.1536 130.259 92.1653 127.398C92.3848 127.311 92.6031 127.217 92.8202 127.12C93.0199 127.031 93.2184 126.94 93.4135 126.849L93.5006 126.81L93.5145 126.803C96.4764 126.072 99.5579 125.07 102.637 123.797C122.417 115.672 130.776 102.695 131.988 93.1489C133.445 81.4693 126.014 70.2996 116.674 61.9204C112.231 56.7474 106.724 52.2193 101.252 48.7251C94.3215 44.2848 87.2238 41.2422 80.9819 39.8405C74.762 38.4433 69.2956 38.6552 65.7125 40.8558C62.27 42.959 59.7376 46.9591 57.9902 52.9422C55.4382 55.9021 53.5596 60.3809 52.2777 66.4638C50.9831 72.6067 50.29 80.4279 50.153 90.0621C50.0148 100.139 50.708 108.386 52.2383 114.748C53.7662 121.099 56.143 125.634 59.4288 128.209C62.4325 130.566 66.8725 131.789 72.2018 131.789ZM96.8549 117.929C103.341 115.261 108.605 112.069 112.807 108.642C108.707 114.043 102.144 119.465 92.4394 123.724C90.2786 124.24 88.1933 124.598 86.2171 124.796C84.1493 125.003 82.1998 125.035 80.4048 124.893C76.8809 124.614 73.9852 123.666 71.951 122.079L71.713 121.882C73.3118 122.166 75.0418 122.321 76.8891 122.321C82.9313 122.321 89.8432 120.789 96.8549 117.929ZM118.209 96.3348C118.165 96.7507 118.098 97.1739 118.012 97.6096C117.932 98.0125 117.836 98.4261 117.725 98.855C113.455 104.623 106.359 110.473 95.6068 114.904C90.0893 117.172 84.7414 118.52 80.0228 118.942C75.3715 119.358 71.3658 118.873 68.4097 117.521C65.2586 111.438 63.7271 101.087 63.9384 86.5057C64.0743 77.3088 64.728 69.8293 65.9076 63.9986C67.0617 58.2931 68.7104 54.2131 70.8294 51.6413C77.4475 52.1207 86.1498 55.3644 94.7708 60.8982C101.035 64.9136 107.342 70.3143 111.857 76.4516C116.376 82.5917 119.073 89.427 118.209 96.3348ZM96.5658 58.1633C88.9503 53.2878 81.1293 50.09 74.4613 48.9098C75.2101 48.609 76.0554 48.3852 76.997 48.2424C77.804 48.12 78.6818 48.0571 79.628 48.0571C86.5899 48.0571 96.178 51.515 105.302 57.3599C108.408 59.3373 111.514 61.6745 114.409 64.2802C120.169 71.0328 123.908 78.9168 122.927 86.8672C122.728 88.4644 122.302 90.1794 121.608 91.9528C121.126 85.4564 118.119 79.2216 113.845 73.6657C109.116 67.5154 102.81 62.164 96.5658 58.1633ZM60.9684 54.5145C61.5303 53.9411 62.1399 53.4522 62.7715 53.0697C63.301 52.7428 63.8908 52.4708 64.5387 52.2538C65.2144 52.0278 65.9552 51.8606 66.7575 51.753C64.8673 54.8777 63.445 59.1061 62.4488 64.4972C61.362 70.3733 60.7745 77.6607 60.6526 86.462C60.4935 97.2272 61.2993 105.9 63.0676 112.424C61.6128 109.912 60.4656 106.55 59.6459 102.329C58.5359 96.6107 58.0332 89.3613 58.1551 80.6064C58.306 69.4038 59.2384 60.743 60.9684 54.5145ZM73.8459 42.1584C78.8118 42.1584 85.1432 43.9312 91.6939 47.0928C88.7483 46.1024 85.9211 45.4242 83.3017 45.0808C78.5459 44.4582 74.4125 44.933 71.5249 46.7245C70.7505 47.1982 70.0654 47.7517 69.392 48.405C66.9259 48.375 64.6989 48.7076 62.8226 49.4356C64.1207 46.635 65.6986 44.725 67.4913 43.6309C69.0379 42.6632 71.1603 42.1584 73.8459 42.1584ZM65.4467 119.602L65.6069 119.701C65.7485 119.787 65.8937 119.873 66.04 119.956C67.1453 121.882 68.4399 123.437 69.9284 124.609C72.1554 126.361 75.1695 127.472 78.7468 127.941C75.5329 128.497 72.5408 128.665 69.8901 128.451C66.3802 128.169 63.4984 127.22 61.4793 125.647C58.7438 123.491 56.6596 119.472 55.3023 113.507C53.9474 107.555 53.332 99.7366 53.4678 90.0746C53.6002 80.6222 54.2876 72.9943 55.5322 67.0984C55.1526 71.1234 54.9285 75.6068 54.8704 80.5639C54.7172 90.6412 55.4103 98.8879 56.9441 105.249C58.4767 111.601 60.8616 116.136 64.1463 118.71L64.1555 118.717C64.4748 118.955 64.8023 119.185 65.1425 119.407L65.4467 119.602ZM126.176 87.2796C126.563 84.1311 126.307 81.0172 125.545 77.9904C128.048 82.7197 129.321 87.7346 128.68 92.7653C127.794 99.8035 122.332 109.217 109.852 116.596C115.829 111.224 119.287 105.413 120.753 100.249C123.988 95.7388 125.68 91.2146 126.176 87.2796Z" fill="white"/>
</svg>

<svg xmlns="http://www.w3.org/2000/svg" width="170" height="170" viewBox="0 0 170 170" fill="none"><path fill="#fff" fill-rule="evenodd" d="M72.202 131.789c6.042 0 12.952-1.53 19.963-4.391q.33-.131.655-.278.3-.134.594-.271l.087-.039.013-.007a64.4 64.4 0 0 0 9.123-3.006c19.78-8.125 28.139-21.102 29.351-30.648 1.457-11.68-5.974-22.85-15.314-31.229-4.443-5.173-9.95-9.7-15.422-13.195-6.93-4.44-14.028-7.483-20.27-8.885-6.22-1.397-11.686-1.185-15.27 1.016-3.442 2.103-5.974 6.103-7.722 12.086-2.552 2.96-4.43 7.439-5.712 13.522-1.295 6.143-1.988 13.964-2.125 23.598-.138 10.077.555 18.324 2.085 24.686 1.528 6.351 3.905 10.886 7.19 13.461 3.005 2.357 7.445 3.58 12.774 3.58m24.653-13.86c6.486-2.668 11.75-5.86 15.952-9.287-4.1 5.401-10.663 10.823-20.368 15.082-2.16.516-4.246.874-6.222 1.072-2.068.207-4.017.239-5.812.097-3.524-.279-6.42-1.227-8.454-2.814l-.238-.197a29.6 29.6 0 0 0 5.176.439c6.042 0 12.954-1.532 19.966-4.392m21.354-21.594q-.067.622-.197 1.275-.12.603-.287 1.245c-4.27 5.768-11.366 11.618-22.118 16.049-5.518 2.268-10.866 3.616-15.584 4.038-4.651.416-8.657-.069-11.613-1.421-3.151-6.083-4.683-16.434-4.472-31.015.136-9.197.79-16.677 1.97-22.507 1.154-5.706 2.802-9.786 4.921-12.358 6.619.48 15.32 3.723 23.942 9.257 6.264 4.016 12.571 9.416 17.086 15.554 4.519 6.14 7.216 12.975 6.352 19.883M96.566 58.163C88.95 53.288 81.129 50.09 74.46 48.91a11.4 11.4 0 0 1 2.536-.668 17.6 17.6 0 0 1 2.631-.185c6.962 0 16.55 3.458 25.674 9.303a69.6 69.6 0 0 1 9.107 6.92c5.76 6.753 9.499 14.637 8.518 22.587-.199 1.597-.625 3.312-1.319 5.086-.482-6.497-3.489-12.731-7.763-18.287-4.729-6.15-11.035-11.502-17.28-15.503m-35.598-3.648a9.3 9.3 0 0 1 1.803-1.445 8.5 8.5 0 0 1 1.768-.816 12 12 0 0 1 2.218-.501c-1.89 3.125-3.312 7.353-4.308 12.744-1.087 5.876-1.674 13.164-1.796 21.965-.16 10.765.646 19.438 2.415 25.962-1.455-2.512-2.602-5.874-3.422-10.095-1.11-5.718-1.613-12.968-1.49-21.723.15-11.202 1.082-19.863 2.812-26.091m12.878-12.357c4.966 0 11.297 1.773 17.848 4.935-2.946-.99-5.773-1.669-8.392-2.012-4.756-.623-8.89-.148-11.777 1.643a12 12 0 0 0-2.133 1.681c-2.466-.03-4.693.303-6.57 1.03 1.299-2.8 2.877-4.71 4.67-5.804 1.546-.968 3.668-1.473 6.354-1.473m-8.4 77.444.16.099q.215.13.434.255c1.105 1.926 2.4 3.481 3.888 4.653 2.227 1.752 5.242 2.863 8.819 3.332-3.214.556-6.206.724-8.857.51-3.51-.282-6.392-1.231-8.41-2.804-2.736-2.156-4.82-6.175-6.178-12.14-1.355-5.952-1.97-13.77-1.834-23.432.132-9.453.82-17.08 2.064-22.977-.38 4.025-.603 8.509-.662 13.466-.153 10.077.54 18.324 2.074 24.685 1.533 6.352 3.918 10.887 7.202 13.461l.01.007q.477.357.986.69zm60.73-32.322c.387-3.149.131-6.263-.631-9.29 2.503 4.73 3.776 9.745 3.135 14.775-.886 7.038-6.348 16.452-18.828 23.831 5.977-5.372 9.435-11.183 10.901-16.347 3.235-4.51 4.927-9.034 5.423-12.97" clip-rule="evenodd"/></svg>
